img/why-we/chain.svg

<svg width="34" height="34" viewBox="0 0 34 34" fill="none" xmlns="http://www.w3.org/2000/svg">
<path d="M10.197 23.9284C10.3932 24.1245 10.6508 24.2231 10.9083 24.2231C11.1659 24.2231 11.4225 24.1245 11.6197 23.9284L23.8078 11.6477C24.2002 11.2554 24.2002 10.6176 23.8078 10.2253C23.4155 9.83306 22.7786 9.83306 22.3852 10.2253L10.197 22.5061C9.8036 22.8983 9.8036 23.5351 10.197 23.9284ZM15.8635 21.7869C16.1965 23.2524 15.8373 24.6908 14.7044 25.8244L10.6407 29.7614C9.78549 30.6154 8.64857 31.0861 7.43921 31.0861C6.22985 31.0861 5.09293 30.6154 4.23772 29.7614C2.47298 27.9961 2.47298 25.1243 4.22766 23.3701L8.19782 19.2762C9.05303 18.4222 10.19 17.9505 11.3993 17.9505C11.8128 17.9505 12.2113 18.0239 12.5996 18.1305L14.1702 16.5603C13.2938 16.1509 12.3481 15.9377 11.3993 15.9377C9.72613 15.9377 8.05194 16.5764 6.77517 17.8529L2.81506 21.9377C0.261516 24.4906 0.261516 28.6308 2.81506 31.1847C4.09183 32.4622 5.76602 33.0999 7.43921 33.0999C9.11239 33.0999 10.7866 32.4622 12.0634 31.1847L16.118 27.2578C18.0719 25.3044 18.4935 22.5825 17.4592 20.1935L15.8635 21.7869ZM31.1837 2.81508C29.906 1.53863 28.2328 0.899902 26.5596 0.899902C24.8854 0.899902 23.2112 1.53863 21.9354 2.81508L17.8818 6.74302C15.8575 8.76784 15.4439 11.7875 16.6302 14.2257L18.1917 12.6646C17.7298 11.1216 18.084 9.38444 19.2944 8.17538L23.3581 4.23839C24.2143 3.38441 25.3502 2.91265 26.5606 2.91265C27.769 2.91265 28.9069 3.38441 29.7611 4.23839C31.5258 6.0037 31.5258 8.87647 29.7711 10.6297L25.7074 14.6924C24.8532 15.5474 23.7153 16.0172 22.5069 16.0172C22.1991 16.0172 21.9274 16.0483 21.6316 15.988L20.0288 17.5914C20.8297 17.9243 21.6517 18.0299 22.5069 18.0299C24.1801 18.0299 25.8533 17.3922 27.1311 16.1147L31.1847 12.0621C33.7383 9.50917 33.7383 5.37 31.1847 2.81609L31.1837 2.81508Z" fill="#FBD8D5"/>
</svg>

<svg width="34" height="34" fill="none" xmlns="http://www.w3.org/2000/svg"><path d="M10.197 23.928a1.004 1.004 0 001.423 0l12.188-12.28a1.006 1.006 0 00-1.423-1.423L10.197 22.506a1.005 1.005 0 000 1.422zm5.667-2.141c.332 1.465-.027 2.904-1.16 4.037l-4.063 3.937a4.501 4.501 0 01-3.202 1.325c-1.21 0-2.346-.47-3.201-1.325-1.765-1.765-1.765-4.637-.01-6.39l3.97-4.095a4.503 4.503 0 013.201-1.325c.414 0 .812.073 1.2.18l1.571-1.57a6.521 6.521 0 00-7.395 1.293l-3.96 4.084a6.539 6.539 0 109.248 9.247l4.055-3.927c1.954-1.954 2.376-4.675 1.341-7.064l-1.595 1.593zm15.32-18.972A6.523 6.523 0 0026.56.9a6.518 6.518 0 00-4.625 1.915l-4.053 3.928a6.537 6.537 0 00-1.252 7.483l1.562-1.561c-.462-1.543-.108-3.28 1.102-4.49l4.064-3.937a4.505 4.505 0 013.203-1.325 4.5 4.5 0 013.2 1.325c1.765 1.766 1.765 4.638.01 6.392l-4.064 4.062a4.495 4.495 0 01-3.2 1.325c-.308 0-.58.031-.875-.029l-1.603 1.603c.8.333 1.623.439 2.478.439a6.519 6.519 0 004.624-1.915l4.054-4.053a6.537 6.537 0 000-9.246h-.001z" fill="#FBD8D5"/></svg>
